public/images/location.svg

<svg xmlns:xlink="http://www.w3.org/1999/xlink" xmlns="http://www.w3.org/2000/svg" width="18" height="23" viewBox="0 0 18 23" fill="none">
<path fill-rule="evenodd" clip-rule="evenodd" d="M8.75 6C6.67893 6 5 7.67893 5 9.75C5 11.8211 6.67893 13.5 8.75 13.5C10.8211 13.5 12.5 11.8211 12.5 9.75C12.5 7.67893 10.8211 6 8.75 6ZM6.5 9.75C6.5 8.50736 7.50736 7.5 8.75 7.5C9.99264 7.5 11 8.50736 11 9.75C11 10.9926 9.99264 12 8.75 12C7.50736 12 6.5 10.9926 6.5 9.75Z" fill="#8D9AC5"/>
<path fill-rule="evenodd" clip-rule="evenodd" d="M8.75 0C3.86666 0 0 4.24277 0 9.3587C0 10.9994 0.815106 12.9314 1.84064 14.7445C2.88277 16.587 4.21288 18.4262 5.37903 19.9133L5.41793 19.9629C5.98714 20.6888 6.47203 21.3073 6.94224 21.7344C7.45524 22.2004 8.02094 22.5055 8.75 22.5055C9.47906 22.5055 10.0448 22.2004 10.5578 21.7344C11.028 21.3072 11.5129 20.6888 12.0821 19.9629L12.121 19.9133C13.2871 18.4262 14.6172 16.587 15.6594 14.7445C16.6849 12.9314 17.5 10.9994 17.5 9.3587C17.5 4.24277 13.6333 0 8.75 0ZM1.5 9.3587C1.5 4.96571 4.79678 1.5 8.75 1.5C12.7032 1.5 16 4.96571 16 9.3587C16 10.5852 15.3604 12.2264 14.3537 14.006C13.3637 15.7563 12.0842 17.5294 10.9406 18.9877C10.3217 19.777 9.91413 20.2926 9.54918 20.6241C9.21635 20.9264 8.99418 21.0055 8.75 21.0055C8.50582 21.0055 8.28365 20.9264 7.95082 20.6241C7.58587 20.2926 7.17834 19.777 6.55938 18.9877C5.41578 17.5294 4.13628 15.7563 3.14625 14.006C2.13962 12.2264 1.5 10.5852 1.5 9.3587Z" fill="#8D9AC5"/>
</svg>

<svg xmlns="http://www.w3.org/2000/svg" width="18" height="23" fill="none"><path fill="#8D9AC5" fill-rule="evenodd" d="M8.75 6a3.75 3.75 0 1 0 0 7.5 3.75 3.75 0 0 0 0-7.5M6.5 9.75a2.25 2.25 0 1 1 4.5 0 2.25 2.25 0 0 1-4.5 0" clip-rule="evenodd"/><path fill="#8D9AC5" fill-rule="evenodd" d="M8.75 0C3.867 0 0 4.243 0 9.359c0 1.64.815 3.572 1.84 5.386 1.043 1.842 2.373 3.681 3.539 5.168l.039.05c.57.726 1.054 1.344 1.524 1.771.513.466 1.079.771 1.808.771s1.295-.305 1.808-.77c.47-.428.955-1.046 1.524-1.772l.039-.05c1.166-1.487 2.496-3.326 3.538-5.168 1.026-1.814 1.841-3.746 1.841-5.386C17.5 4.243 13.633 0 8.75 0M1.5 9.359C1.5 4.966 4.797 1.5 8.75 1.5S16 4.966 16 9.359c0 1.226-.64 2.867-1.646 4.647-.99 1.75-2.27 3.523-3.413 4.982-.62.789-1.027 1.305-1.392 1.636-.333.302-.555.382-.799.382s-.466-.08-.8-.382c-.364-.331-.772-.847-1.39-1.636-1.144-1.459-2.424-3.232-3.414-4.982C2.14 12.226 1.5 10.586 1.5 9.359" clip-rule="evenodd"/></svg>
